uui/icons/search-with-background.svg

<svg width="66" height="67" viewBox="0 0 66 67" fill="none" xmlns="http://www.w3.org/2000/svg">
<path d="M0 33.5C0 15.2746 14.7746 0.5 33 0.5C51.2254 0.5 66 15.2746 66 33.5C66 51.7254 51.2254 66.5 33 66.5C14.7746 66.5 0 51.7254 0 33.5Z" fill="#EBEDF5"/>
<path fill-rule="evenodd" clip-rule="evenodd" d="M42.3098 40.3349L49.4749 47.5L47 49.9749L39.8349 42.8098C37.4642 44.6526 34.4852 45.75 31.25 45.75C23.518 45.75 17.25 39.482 17.25 31.75C17.25 24.018 23.518 17.75 31.25 17.75C38.982 17.75 45.25 24.018 45.25 31.75C45.25 34.9852 44.1526 37.9642 42.3098 40.3349ZM31.25 42.25C37.049 42.25 41.75 37.549 41.75 31.75C41.75 25.951 37.049 21.25 31.25 21.25C25.451 21.25 20.75 25.951 20.75 31.75C20.75 37.549 25.451 42.25 31.25 42.25Z" fill="#6C6F80"/>
</svg>

<svg xmlns="http://www.w3.org/2000/svg" width="66" height="67" viewBox="0 0 66 67"><path d="M0 33.5C0 15.275 14.775.5 33 .5s33 14.775 33 33-14.775 33-33 33-33-14.775-33-33z"/><path fill-rule="evenodd" d="M42.31 40.335l7.165 7.165L47 49.975l-7.165-7.165a13.94 13.94 0 01-8.585 2.94c-7.732 0-14-6.268-14-14s6.268-14 14-14 14 6.268 14 14a13.94 13.94 0 01-2.94 8.585zM31.25 42.25c5.799 0 10.5-4.701 10.5-10.5s-4.701-10.5-10.5-10.5-10.5 4.701-10.5 10.5 4.701 10.5 10.5 10.5z" clip-rule="evenodd"/></svg>
